X: 173
T: 3. L'allemande Suisse
T: l'Allemande Suisse
B: Robert Landrin "Potpourri fran\,cois des contre-danse ancienne tel quil se danse chez la Reine ..." 1760 p.17 #3 dance 6 #3
S: http://memory.loc.gov/cgi-bin/query/D?musdibib:2:./temp/~ammem_EbRS:
Z: 2014 John Chambers <jc:trillian.mit.edu>
M: 2/2
L: 1/8
K: G
% - - - - - - - - - - - - - - - - - - - - - - - - -
G2BG |\
A2A2 G2BG | A4 G2BG | AcBA G2D2 | B,2G,2 G2BG |\
A2A2 G2BG | A4 G2BG | AcBA G4 | G4 :|
|: B2cB |\
"2.f."c2c2 B2dB | c4 B2cB | A2BA G2D2 | B,2G,2 B2dB |\
c2c2 B2dB | c4 B2cB | A2BA G4 | G4 !segno!g2gd |
e2ec d2dB | c2cA B2BG | A2AF G2D2 | B,2G,2 g2gd |\
e2ec d2dB | c2cA B2BG | A2AF G4 | HG4 B2B2 |
c2c2 B2B2 | c4 B2cB | A2BA G2D2 | B,2G,2 B2B2 |\
c2c2 B2B2 | c4 B2cB | A2BA G4 | G4 !segno!y:|
% - - - - - - - - - - - - - - - - - - - - - - - - -

%%sep 1 1 500
%%sep 1 1 500
